_includes/icons/color-form.svg

<svg fill="#666" height="50" viewBox="0 0 48 48" width="50" xmlns="http://www.w3.org/2000/svg"><path d="m43 40c0 .554688-.445312 1-1 1h-36c-.554687 0-1-.445312-1-1v-32c0-.554687.445313-1 1-1h36c.554688 0 1 .445313 1 1z" fill="#bbdefb"/><path d="m16 29h-7v7h7z" fill="#64b5f6"/><g fill="#1976d2"><path d="m9 15h8v2h-8z"/><path d="m9 22h8v2h-8z"/><path d="m19 31h20v2h-20z"/></g><path d="m39 17c0 .550781-.445312 1-1 1h-16c-.550781 0-1-.449219-1-1v-2c0-.550781.449219-1 1-1h16c.554688 0 1 .449219 1 1z" fill="#fff"/><path d="m39 24c0 .550781-.445312 1-1 1h-16c-.550781 0-1-.449219-1-1v-2c0-.550781.449219-1 1-1h16c.554688 0 1 .449219 1 1z" fill="#fff"/><path d="m11 31h3v3h-3z" fill="#fafafa"/></svg>

<svg xmlns="http://www.w3.org/2000/svg" viewBox="0 0 48 48" width="50" height="50" fill="#666"><path d="M 43 40 C 43 40.554688 42.554688 41 42 41 L 6 41 C 5.445313 41 5 40.554688 5 40 L 5 8 C 5 7.445313 5.445313 7 6 7 L 42 7 C 42.554688 7 43 7.445313 43 8 Z" fill="#bbdefb"/><path d="M 16 29 L 9 29 L 9 36 L 16 36 Z" fill="#64b5f6"/><path d="M 9 15 L 17 15 L 17 17 L 9 17 Z" fill="#1976d2"/><path d="M 9 22 L 17 22 L 17 24 L 9 24 Z" fill="#1976d2"/><path d="M 19 31 L 39 31 L 39 33 L 19 33 Z" fill="#1976d2"/><path d="M 39 17 C 39 17.550781 38.554688 18 38 18 L 22 18 C 21.449219 18 21 17.550781 21 17 L 21 15 C 21 14.449219 21.449219 14 22 14 L 38 14 C 38.554688 14 39 14.449219 39 15 Z" fill="#fff"/><path d="M 39 24 C 39 24.550781 38.554688 25 38 25 L 22 25 C 21.449219 25 21 24.550781 21 24 L 21 22 C 21 21.449219 21.449219 21 22 21 L 38 21 C 38.554688 21 39 21.449219 39 22 Z" fill="#fff"/><path d="M 11 31 L 14 31 L 14 34 L 11 34 Z" fill="#fafafa"/></svg>
